X:17
T:Bundle and Go
R:jig
M:6/8
K:Em
|:D|"Em"E3 EDB,|"G"G3 GAB|"D"A3 ABA|"Bm"d3 d2e|
"G"dBG GAB|"D"AFE DEF|"Em"GFE "D"FED |"Em"E3 E2 :|
|:A|"Em"Bee edB|"D"Add def|"Em"~e3 edB|"D"d3 d2e|
"G"dBG GAB|"D"AFE DEF|"Em"GFE"D" FED|"Em" ~E3 E2:|
